theme-base/src/main/assets/themes/mapsforgeV3/base/symbols/db_poi_tram.svg

<svg enable-background="new 0 0 48 48" height="48" viewBox="0 0 48 48" width="48" xmlns="http://www.w3.org/2000/svg"><path d="m38 33.88v-16.88c0-5.58-5.221-6.8-12.02-6.98l1.52-3.02h6.5v-3h-20v3h9.5l-1.52 3.04c-6.259.181-11.98 1.42-11.98 6.96v16.88c0 2.899 2.38 5.32 5.18 5.94l-3.18 3.18v1h4.46l4-4h7.54l4 4h4v-1l-3-3h-.16c3.381 0 5.16-2.74 5.16-6.12zm-14 3.12c-1.66 0-3-1.34-3-3s1.34-3 3-3 3 1.34 3 3-1.34 3-3 3zm10-9h-20v-10h20z"/></svg>

<?xml version="1.0" encoding="utf-8"?>
<!-- Generator: Adobe Illustrator 15.0.2, SVG Export Plug-In . SVG Version: 6.00 Build 0)  -->
<!DOCTYPE svg PUBLIC "-//W3C//DTD SVG 1.1//EN" "http://www.w3.org/Graphics/SVG/1.1/DTD/svg11.dtd">
<svg version="1.1" id="Vrstva_3" xmlns="http://www.w3.org/2000/svg" xmlns:xlink="http://www.w3.org/1999/xlink" x="0px" y="0px"
	 width="48px" height="48px" viewBox="0 0 48 48" enable-background="new 0 0 48 48" xml:space="preserve">
<g>
	<path d="M38,33.88V17c0-5.58-5.221-6.8-12.02-6.98L27.5,7H34V4H14v3h9.5l-1.52,3.04C15.721,10.221,10,11.46,10,17v16.88
		c0,2.899,2.38,5.32,5.18,5.94L12,43v1h4.46l4-4H28l4,4h4v-1l-3-3h-0.16C36.221,40,38,37.26,38,33.88z M24,37c-1.66,0-3-1.34-3-3
		s1.34-3,3-3s3,1.34,3,3S25.66,37,24,37z M34,28H14V18h20V28z"/>
</g>
</svg>
